!!!!SEGMENT: pl-wumfc--n53446--001-003_moniuszko-stanislaw--hrabina-no-2-duet.krn
!!!cenid: 18xx:4090
!!!COM: Moniuszko, Stanisław
!!!COM-rismID: pe30008351
!!!CDT: 1819/05/05-1872/06/04
!!!CNT: Polish
!!!OPR: Hrabina
!!!OTL: No. 2. Duet
!!!OMV: 003
!!!PDT:
!!!AGN:
!!!SMS-siglum: PL-Wumfc
!!!SMS-shelfmark: N53446
!!!SMS-variant:
!!!SMS-altvar:
!!!SMS-shelfwork: 001-003 M
!!!NIFC-rismSourceID: 1001165649
!!!NIFC-rismChildID: 1001165649
!!!NIFC-islandoraID: pl-wumfc:6884
!!!URL-pdf-islandora: https://repozytorium.nifc.pl/islandora/object/pl-wumfc%3A6884/datastream/PDF/view
!!!URL-scan: https://polish.musicsources.pl/pl/lokalizacje/galeria/druki-muzyczne/12579 @EN{Scan on Polish Music Sources Website} @PL{Skany w portalu Dziedzictwo Muzyki Polskiej w otwartym dostępie}
!!!ONB-nifc:
!!!AIN: 1 piano
!!!key: G
**kern	**kern	**text	**dynam
*part1	*part1	*part1	*part1
*staff2	*staff1	*staff1	*
*I"[Piano.]	*I"[Piano.]	*	*
*Ipiano	*Ipiano	*	*
*ICklav	*ICklav	*	*
*clefF4	*clefG2	*	*
*clefF4	*clefG2	*	*
*k[f#]	*k[f#]	*	*
*G:	*G:	*	*
*M4/4	*M4/4	*	*
*met(c)	*met(c)	*	*
=1	=1	=1	=1
*^	*	*	*
!!LO:TX:B:a:t=Allegro moderato.
!	!	!LO:TX:t=P:problem:cały tekst zapisany ponad pięciolinią	!	!
8GG 8GGG/	4ryy	8gg 8dd 8b 8g\	.	ff
8r	.	8r	.	.
8.DL 8.BB/	4ryy	8.gL 8.d/	Dz: Wuj-	.
16CJk 16AA/	.	16aJk 16f#/	-ciu	.
(4BB/	[2GG\	8.bL 8.g/	dro-	.
.	.	16b/K	-gi,	.
4D#X/	.	8.b/	wuj-	.
.	.	16b/Jk	-ciu	.
=2	=2	=2	=2	=2
*	*	*^	*	*
4E 4BB/	2GG\]	8.b/L	4r	mi-	.
.	.	16b/K	.	-ły,	.
4F# 4AA/	.	8.dd/	[2.d\	to	.
.	.	16cc/Jk	.	tak	.
[2G/)	(4GG\	8.b/L	.	cud-	.
.	.	16a/K	.	-ny,	.
.	4D 4BB\	8.g/	.	świe-	.
.	.	16f#/Jk	.	-ży	.
=3	=3	=3	=3	=3	=3
8G/]	8C\)	8e/	8d\]	kwiat!	.
8r	8ryy	8r	8r	.	.
!	!	!LO:TX:t=P:problem:słowa "je vous jure" zapisane kursywą	!	!	!
8.EL 8.C/	4ryy	8.aL 8.c/	4ryy	je	.
16DJk 16BB/	.	16bJk 16d/	.	vous	.
8C 8AA/	2ryy	8cc 8e/	2ryy	jure,	.
8r	.	8r	.	.	.
8.eL 8.c\	.	8.a/L	.	dzi-	.
16dJk 16B\	.	16bJk 16g#X/	.	-siaj	.
*v	*v	*	*	*	*
*	*v	*v	*	*
!!LO:LB:g=original
=4	=4	=4	=4
8c 8A\	8cc 8a/	świat	.
8r	8r	.	.
4r	8.e/L	ma-	.
.	16gn/Jk	-ło	.
.	8qg/	.	.
8c 8A 8D\	8.f#/L	wa-	.
8r	.	.	.
.	16e/K	-ży	.
8c 8A 8D\	8.f#/	licz-	.
8r	.	.	.
.	16dd/Jk	-bę	.
=5	=5	=5	=5
*^	*^	*	*
8B 8G\	4ryy	8b/	4ryy	lat;	.
8r	.	8r	.	.	.
(4E/	[2.GG\	8.g/L	(4c\	jest	.
.	.	16a/Jk	.	u-	.
4D/	.	8.b/L	4B\	-ro-	.
.	.	16b/K	.	-da,	.
4C/	.	8.b/	4e\	i-	.
.	.	16b/Jk	.	-mie,	.
=6	=6	=6	=6	=6	=6
4BB/	2GG\]	8.b/L	4d\	si-	.
.	.	16b/K	.	-ły,	.
4AA/	.	8.dd/	4f#\	dwieś-	.
.	.	16cc/Jk	.	-cie	.
8GG/)	4ryy	8.b/L	4g\)	kil-	.
8r	.	.	.	.	.
.	.	16a/K	.	-ka-	.
8.B/L	(4BB\	8.g/	(4d#X\	-dzie-	.
16A/Jk	.	16f#/Jk	.	-siąt	.
!!LO:LB:g=original
=7	=7	=7	=7	=7	=7
8G/	8E\)	8e/	8e\)	chat,	.
8r	8ryy	8r	8ryy	.	.
8.eL 8.c\	2ryy	8.a/L	4ryy	wuj-	.
16dJk 16B\	.	16bJk 16g#X/	.	-ciu	.
8c 8A\	.	8cc 8a/	2ryy	czas,	.
8r	.	8r	.	.	.
8.EL 8.C/	4ryy	8.aL 8.e/	.	wiel-	.
16EJk 16BB/	.	16bJk 16d/	.	-ki	.
*v	*v	*	*	*	*
=8	=8	=8	=8	=8
8E 8AA/	8cc 8c/	4ryy	czas,	.
8r	8r	.	.	.
[4A\	8.e/L	4c\	przed	.
.	16gn/Jk	.	oł-	.
.	8qg/	.	.	.
8A] 8D\	8.f#/L	8c\	-ta-	.
8r	.	8r	.	.
.	16e/K	.	-rzem	.
([4D 4DD/	8.f#/	4ryy	uj-	.
.	16dd/Jk	.	-rzeć	.
*	*v	*v	*	*
=9	=9	=9	=9
8D] 8GG/)	8g 8B/	was.	.
8r	8r	.	.
2D\	8.ddL 8.b 8.d/	Pod: A-	fp
.	16ddJk 16cc#X 16a#X 16d/	-leż	.
.	8.ddL 8.ccn 8.an 8.d/	Dzi-	.
.	16ddK 16b 16g/	-dzi	.
4D\	8.dd 8.a 8.f#/	to	.
.	16ddJk 16g 16e/	dzie-	.
!!LO:LB:g=original
=10	=10	=10	=10
*^	*	*	*
8D\	8ryy	(8ddL 8f#/	-ci-	.
8r	8ryy	8d/J)	-na	.
*	*	*clefF4	*	*
8.D/L	2.DD\	8.dL 8.B\	Dz: Wuj-	fp
16C#X/Jk	.	16dJk 16A#X\	-cio	.
8.Cn/L	.	8.dL 8.An\	pło-	.
16BB/K	.	16dK 16G\	-nąć	.
8.AA/	.	8.d 8.F#\	już	.
16GG/Jk	.	16dJk 16E\	za-	.
=11	=11	=11	=11	=11
*	*	*^	*	*
8FF#/	8DD\	8d 8D\	4ryy	-czy-	.
8r	8ryy	8r	.	.	.
*	*	*clefG2	*	*	*
4r	4ryy	8.g/L	4r	-na.	.
.	.	16a/Jk	.	.	.
8G/	2GG\	8.b/L	[4B\	Pod:	.
8r	.	.	.	.	.
.	.	16b/K	.	.	.
8D#X/	.	8.b/	4f# 4B\]	Dzi-	.
8r	.	.	.	.	.
.	.	16b/Jk	.	-dzi!	.
=12	=12	=12	=12	=12	=12
8E/	2.GG\	8bL 8g/	4B\	o-	.
8r	.	16r	.	.	.
.	.	16b/Jk	.	.	.
(4F#/	.	8.dd/L	2d\	-sza-	.
.	.	16cc/Jk	.	.	.
[2G/)	.	8.b/L	.	-la-	.
.	.	16a/K	.	.	.
.	(4D 4BB\	8.g/	4r	-łeś	.
.	.	16f#/Jk	.	.	.
*	*	*v	*v	*	*
!!LO:LB:g=original
=13	=13	=13	=13	=13
8G/]	8C\)	8e/	chyba!	.
8r	8ryy	8r	.	.
8.c\L	2ryy	8.aL 8.e/	a-	.
16dJk 16B\	.	16bJk 16g#X 16e/	-leż	.
8c 8A\	.	8cc 8a 8e/	ja,	.
8r	.	8r	.	.
8.EL 8.C\	4ryy	8.aL 8.e/	sta-	.
16EJk 16BB\	.	16bJk 16e 16d/	-ry	.
*v	*v	*	*	*
=14	=14	=14	=14
*	*^	*	*
8E 8AA/	8cc 8e 8c/	4ryy	grat,	.
8r	8r	.	.	.
4A\	8.e/L	4c\	zrów-	.
.	16gn/Jk	.	-naj	.
.	8qg/	.	.	.
8A 8D\	8.f#/L	8c\	licz-	.
8r	.	8r	.	.
.	16e/K	.	-bę	.
(4D 4DD/	8.f#/	4ryy	na-	.
.	16dd/Jk	.	-szych	.
=15	=15	=15	=15	=15
*^	*	*	*	*
8B 8G\)	4ryy	8b/	4ryy	lat.	.
8r	.	8r	.	.	.
2.G/	(4E\	8.g/L	(4g\	Jest	.
.	.	16a/Jk	.	u-	.
!	!	!	!	!	!LO:HP:b:t=cre-scen-do:ext2=cd
.	4D#X\	8.b/L	4f#\	-ro-	<
.	.	16b/K	.	-da,	.
.	4Dn\	8.b/	4fn\	i-	.
.	.	16b/Jk	.	-mie,	.
!!LO:PB:g=original
=16	=16	=16	=16	=16	=16
4G#X/	4C\	8.b/L	4e\	si-	.
.	.	16b/K	.	-ły,	.
4A/	4AA\	8.dd/	4e\)	dwieś-	.
.	.	16cc/Jk	.	-cie	.
8Gn/	8BB\)	8bL 8e/	4ryy	kil-	.
8r	8r	16r	.	.	.
.	.	16aK 16c/	.	-ka-	[
4D#X/	((4BB\	8.g 8.B/	4ryy	-dzie-	.
.	.	16f#Jk 16A/	.	-siąt	.
*v	*v	*	*	*	*
*	*v	*v	*	*
=17	=17	=17	=17
8E\))	8e 8G/	chat	.
8r	8r	.	.
8.AL 8.Fn\	8.aL 8.fn/	prze-	f
16GJk 16D\	16bJk 16f/	-cież	.
4G 4C^^\	4cc 4e^^</	ja	.
8.AL 8.F\	8.aL 8.f/	sta-	.
16GJk 16D\	16bJk 16f/	-ry	.
=18	=18	=18	=18
4G 4C^^\	4cc 4e^^</	grat,	.
4e 4c 4A\	8.ee\L	ja-	.
.	16ee-X\Jk	-każ	.
(2d 2c 2F# 2D\	8.dd\L	pa-	sf
.	16cc#X\Jk	-ra	.
*	*Xtuplet	*	*
.	12ccn\L	bę-	.
.	12a\	-dzie	.
.	12dd;\J	.	.
!!LO:LB:g=original
=19	=19	=19	=19
*^	*	*	*
8B 8G\)	4ryy	8g/	z nas?	f
8r	.	8r	.	.
4g/	8G\L	16bb\LL	.	.
.	.	16aa\	.	.
.	8G\J	16gg\	.	.
.	.	16bb\JJ	.	.
4f#/	8G\L	(16ddd\LL	.	.
.	.	16dd\)	.	.
.	8G\	16dd\	.	.
.	.	16aa\JJ	.	.
4e/	8G\	16gg\LL	.	.
.	.	16ff#\	.	.
.	8G\J	16gg\	.	.
.	.	16aa\JJ	.	.
=20	=20	=20	=20	=20
!	!	!	!	!LO:HP:a
4d/	8G\L	(16bb\LL	.	>
.	.	16b\)	.	.
.	8G\	16b\	.	.
.	.	16ff#\JJ	Dz: A Kasztelan?	.
.	.	8qff#/	.	.
4c/	8G\	16ee\LL	.	.
.	.	16dd\	.	.
.	8G\J	16ee\	.	.
.	.	16ff#\JJ	.	.
4d 4B/	8G\L	(16gg\LL	.	.
.	.	16dd\	.	.
.	8G\	16b\	.	.
.	.	16ee\JJ	.	.
4f# 4A/	8G\	16dd/LL	Pod-	.
.	.	16d/	.	.
.	8G\J	16a/	-ko-	.
.	.	16cc/JJ	.	.
=21	=21	=21	=21	=21
8g/	8G\L	8b\)	-morzy?	] p
8r	8G\J	8r	.	.
4B/	8G\L	16bb\LL	.	.
.	.	16aa\	.	.
.	8GG'>\J	16gg\	.	.
.	.	16eee\JJ	.	.
4A/	8F#\L	(16ddd\LL	.	.
.	.	16dd\)	.	.
.	8GG'>\J	16dd\	.	.
.	.	16aa\JJ	.	.
.	.	8qaa/	.	.
4G/	8E\L	16gg\LL	.	.
.	.	16ff#\	.	.
.	8GG'>\J	16ee\	.	.
.	.	16ccc\JJ	.	.
!!LO:LB:g=original
=22	=22	=22	=22	=22
!	!	!	!	!LO:HP:a
4F#/	8D\L	(16bb\LL	.	>
.	.	16dd\)	.	.
.	8GG'>\J	16dd\	.	.
.	.	16ff#\JJ	.	.
.	.	8qff#/	.	.
!	!LO:TX:t=P:problem:błędne wyświetlanie łuku	!	!	!
[4E 4BB/	(>8GG\L	16ee\LL	i-	.
.	.	16dd\	.	.
.	8FF#\J	16ee\	.	.
.	.	16ff#\JJ	-leż	.
8E]L 8EE\)	4ryy	16gg\LL	starsi?	.
.	.	16ff#\	.	.
8BJ 8G'\	.	16ee\	.	.
.	.	16dd\JJ	.	.
8AA'\L	4ryy	16cc#X\LL	.	.
.	.	16b\	przy-	.
8c#XJ 8E'\	.	16a\	-tém	.
.	.	16g\JJ	.	]]
=23	=23	=23	=23	=23
8d 8F#/	8D\	8f#/	chorzy.	p
8r	8r	8r	.	.
4d/	8D\L	16ff#\LL	.	.
.	.	16ee\	.	.
.	8D\J	16dd\	.	.
.	.	16ff#\JJ	.	.
4c#X/	8D\L	(16ee\LL	.	.
.	.	16a\)	.	.
.	8D\	16a\	.	.
.	.	16ee\JJ	.	.
4B/	8D\	16dd\LL	.	.
.	.	16cc#X\	.	.
.	8D\J	16b\	.	.
.	.	16dd\JJ	.	.
=24	=24	=24	=24	=24
!	!	!	!	!LO:HP:a
4A/	8D\L	(16cc#X/LL	.	>
.	.	16f#/)	.	.
.	8D\	16f#/	Pod:	.
.	.	16cc#/JJ	Tak!	.
.	.	8qcc#/	.	.
4G/	8D\	16b/LL	Kasztelan,	.
.	.	16a/	.	.
.	8D\J	16b/	.	.
.	.	16cc#/JJ	.	.
4F#/	8D\L	16dd/LL	.	.
.	.	16a/	.	.
.	8D\	16f#/	.	.
.	.	16b/JJ	.	.
4c#X 4E/	8D\	16a\LL	Podko-	.
.	.	16cc#\	.	.
.	8D\J	16ee\	.	.
.	.	16gg\JJ	.	]]
!!LO:LB:g=original
=25	=25	=25	=25	=25
8d 8A/	8D\L	16ff#\LL	-morzy,	.
.	.	16a\	.	.
8r	8D\	16dd\	.	.
.	.	16ee\JJ	.	.
.	.	8qgg/	.	fp
(4d/	8D\	16ff#\LL	.	.
.	.	16ee\	.	.
.	8D\J	16dd\	.	.
.	.	16bb\JJ	.	.
4c#X/	8D\L	16aa\LL	.	.
.	.	16a\	.	.
.	8D\	16a\	.	.
.	.	16ee\JJ	.	.
.	.	8qee/	.	.
4B/	8D\	16dd\LL	.	.
.	.	16cc#X\	.	.
.	8D\J	16b\	.	.
.	.	16gg\JJ	.	.
=26	=26	=26	=26	=26
!	!	!	!	!LO:HP:a
8A/)	8D\	(16ff#/LL	.	>
.	.	16f#/)	.	.
(8AL 8F#\	8ryy	16f#/	.	.
.	.	16a/JJ	.	.
.	.	8qcc#X/	.	.
8G#X 8E#X\	4ryy	16b/LL	istne	.
.	.	16a/	dziady,	.
8GnJ 8En\	.	16b/	.	.
.	.	16cc#/JJ	.	.
8F#L 8D\)	2ryy	16dd/LL	.	.
.	.	16a/	.	.
8dJ 8A'\	.	16f#/	.	.
.	.	16b/JJ	.	.
8AA\L	.	16a/LL	przytém	.
.	.	16g/	.	.
8c#XJ 8A'\	.	16e/	.	.
.	.	16a/JJ	.	]]
*v	*v	*	*	*
=27	=27	=27	=27
8D\	8d/	chorzy.	.
(16D\LL	(16d/LL	Dz:	.
16E\JJ	16e/JJ	.	.
8F#\L)	8f#/L)	A	.
(16F#\L	(16f#/L	żoneczki	.
16G\JJ	16g/JJ	.	.
8A\)	8a/)	.	.
8AL 8D'\	8ddL 8f# 8d'/	.	.
8B 8D'\	8b 8g 8d'/	jak-	.
8BJ 8D'\	8gJ 8d'/	-by	.
!!LO:LB:g=original
=28	=28	=28	=28
8F# 8D'\	8a 8d'/	skry!	.
(16F#\LL	(16f#/LL	.	.
16G\JJ	16g/JJ	.	.
8A\L)	8a/L)	a	.
(16B\L	(16b/L	żoneczki	.
16c#X\JJ	16cc#X/JJ	.	.
8d\)	8dd\)	.	.
8GL 8GG'/	8cc#L 8a 8e'/	.	<
8F# 8FF#'/	8dd 8a 8d'/	jak-	.
8EJ 8EE'/	8eeJ 8cc# 8g'/	-by skry.	[[
=29	=29	=29	=29
*	*^	*	*
8D 8DD/	8ryy	8ff# 8dd 8f#\	.	.
8r	8r	8ryy	.	.
8dL 8B'\	[2.ff#^^/	16dd'>\LL	Pod: Oj ty Dzidzi,	pp
.	.	16cc#X'>\	.	.
8dJ 8B'\	.	16b'>\	.	.
.	.	16dd'>\JJ	.	.
8c#XL 8F#'\	.	(16cc#\LL	.	.
.	.	16f#\)	.	.
8c#J 8F#'\	.	16f#\	.	.
.	.	16cc#'>\JJ	.	.
8eL 8cn 8A'\	.	16ccn'>\LL	ło-	.
.	.	16b'>\	.	.
8eJ 8c 8A'\	.	16a'>\	-trze	.
.	.	16cc'>\JJ	.	.
=30	=30	=30	=30	=30
(8BL 8E\	8ff#/L]	8b 8g\	Dzidzi!	.
8e\	8ee/	8r	.	.
8d\	8dd/	4r	ko-	.
8B\J)	8b/J	.	-bie-	.
8A\	8aL 8f#/	2ryy	-tecz-	.
8A'\L	8dd 8f#/	.	-ki	.
8AA'\	8cc#X 8e/	.	jak-	.
8A'\J	8eeJ 8g/	.	-by	.
*	*v	*v	*	*
!!LO:PB:g=original
=31	=31	=31	=31
8D\	8dd 8f#/	skry!	.
8r	8r	.	.
2D\	8.ddL 8.b 8.d/	A-	fp
.	16ddJk 16cc#X 16a#X/	-leż	.
.	8.ddL 8.ccn 8.an/	o-	.
.	16ddK 16b 16g/	-sza-	.
4D\	8.dd 8.a 8.f#/	-la-	.
.	16ddJk 16g 16e/	-łeś	.
=32	=32	=32	=32
*^	*	*	*
8D\	4ryy	(8ddL 8f#/	chy-	.
8r	.	8d/J)	-ba.	.
*	*	*clefF4	*	*
8.D/L	[2.DD\	8.dL 8.B\	Dz: (n.s.)Gdzież	fp
16C#X/Jk	.	16dJk 16A#X\	ten	.
8.Cn/L	.	8.dL 8.An\	kwia-	.
16BB/K	.	16dK 16G\	-tek	.
8.AA/	.	8.d 8.F#\	o-	.
16GG/Jk	.	16dJk 16E\	-bok	.
*v	*v	*	*	*
=33	=33	=33	=33
*	*^	*	*^
8FF# 8DD/]	8d 8D\	4ryy	grzyba?	.	.
8r	8r	.	.	.	.
*	*clefG2	*	*	*	*
!	!	!	!	!	!LO:DY:b=2
8.G\L	(4gg/	2dd 2b\	Pod: Choćem	pp	mf
16A\Jk	.	.	.	.	.
8.B\L	4ff#/	.	jeszcze	.	.
16B\K	.	.	.	.	.
8.B\	4ffn/	[4dd 4a\	niby	.	.
16B\Jk	.	.	.	.	.
*	*	*	*	*v	*v
!!LO:LB:g=original
=34	=34	=34	=34	=34
8B\L	8.ee/L)	4dd] 4g#X\	zdrów,	.
16r	.	.	.	.
16B\K	16ee/K	.	.	.
8.d\	8.ee#X/	4dd 4a\	lecz	.
16c\Jk	16ff#/Jk	.	to	.
8.B\L	8gg/	8dd 8gn\	z in-	.
.	16r	8ryy	.	.
16A\K	16ff#KL 16dd\	.	-nej	.
8.G\	8.gg 8.een 8.dd\	4ryy	becz-	.
16F#\Jk	16aaJk 16ff# 16dd\	.	-ki	.
*	*v	*v	*	*
=35	=35	=35	=35
8E\	8bb 8gg 8dd\	znów	.
8r	8r	.	.
8.A\L	8.cccL 8.ee 8.cc\	po-	.
16B\Jk	16bbJk 16dd\	-wiedz	.
4c\	(8aaL 8cc\	sam,	.
.	8ee\J)	.	.
8.A\L	8.eeL 8.cc\	po-	.
16B\Jk	16ddJk 16b\	-wiedz	.
=36	=36	=36	=36
8c\	8cc 8a/	sam	.
8r	8r	.	.
(4C/	8.eL 8.c/	czy-	.
.	16g/Jk	-bym	.
.	8qg/	.	.
8D/)	8.f#L 8.c/	jej	.
8r	.	.	.
.	16e/K	spo-	.
4D 4DD/	8.f# 8.c/	-do-	.
.	16dd/Jk	-bał	.
!!LO:LB:g=original
=37	=37	=37	=37
8GG/	8g 8B/	się?	.
!	!	!	!LO:HP:a
(16G\LL	(<16g/LL	Dz:	p <
16A\JJ	16a/JJ	A ciekawym!	.
8B-X\L)	8b-X\L)	.	.
(16B-\L	(16b-\L	.	.
16c\JJ	16cc\JJ	.	.
8d\)	8dd\)	.	[
8GL 8GG'/	8ggL 8b- 8g'\	.	f
8C'/	8ee-X 8cc 8g'\	.	.
8E-X'/J	8ccJ 8a 8g'\	.	.
=38	=38	=38	=38
8G'\	8dd 8b-X 8g'\	.	.
!	!	!	!LO:HP:a
(16G\LL	(<16g/LL	.	p <
16A\JJ	16a/JJ	.	.
8B-X\L)	8b-\L)	cze-	.
(16B-\L	(16b-\L	-munie?	.
16c\JJ	16cc\JJ	.	[
8d\)	8dd\)	.	.
8GL 8GG/	8ggL 8b- 8g'\	.	f
8C/	8ee-X 8cc 8g'\	.	.
8E-X/J	8ccJ 8a 8g'\	.	.
=39	=39	=39	=39
8G\	8dd 8b-X 8g\	.	.
!	!	!	!LO:HP:a
(16B-X\LL	(16b-\LL	.	<
16c\JJ	16cc\JJ	.	.
8d\L)	8dd\L)	oprócz	.
(16d\L	(16dd\L	.	.
16e-X\JJ	16ee-X\JJ	.	.
8fn\)	8ffn\)	ocząt,	[
8B-L 8BB-X'\	8bb-XL 8dd 8b-'\	.	.
8E-X'\	8gg 8ee- 8b-'\	.	.
8G'\J	8ee-J 8cc 8b-'\	.	.
!!LO:LB:g=original
=40	=40	=40	=40
8B-X'\	8ffn 8dd 8b-X'\	.	.
!	!	!	!LO:HP:a
(16B-\LL	(16b-\LL	.	<
16c\JJ	16cc\JJ	.	.
8d\L)	8dd\L)	pięknych	.
(16d\L	(16dd\L	.	.
16e-X\JJ	16ee-X\JJ	.	.
8fn\)	8ff'\)	.	[
8B-L 8BB-X'\	8bb-XL 8dd 8b-'\	lic	.
8E-X'\	8gg 8ee- 8b-'\	.	.
8G'\J	8ee-J 8cc 8b-'\	.	.
=41	=41	=41	=41
*	*^	*	*
(<[2d 2B-X\	(2ffn/	4dd 4b-X\	.	.
.	.	8.dd\L	i	p
.	.	16dd\Jk	spe-	.
(2d] 2A-X\	2ff#X/	8.cc\L	-ran-	.
.	.	16cc\Jk	-dy	.
.	.	8cc\L	gdzieś	.
.	.	8cc\J	po	.
=42	=42	=42	=42	=42
2e-X 2G\)	2gg/	8.b-X\L	dziadku wszak sie-	.
.	.	16b-\K	.	.
.	.	8b-\	.	.
.	.	8b-\J	.	.
2d 2Bn 2Fn\	2aa-X/	8.a-X\L	-rotka niema	.
.	.	16a-\K	.	.
.	.	8a-\	.	.
.	.	8a-\J	.	.
!!LO:LB:g=original
=43	=43	=43	=43	=43
*^	*	*	*	*
!LO:TX:i:b:t=un poco riten.	!	!LO:TX:i:a:t=dolce	!	!	!
8e-X 8c/	(1E-X)	4aa/)	4.a-X\	nie,	.
8A-X/L	.	.	.	.	.
8c/	.	(4.aa^/	.	a-	.
8e-/J	.	.	8cc\	.	.
(2d-X/	.	.	2b-X\	.	.
.	.	8gg/L	.	.	.
.	.	8ffn/	.	.	.
.	.	8ee-X/J)	.	-le	.
=44	=44	=44	=44	=44	=44
8dn/L)	2D\	[2gg/	2bn\	ja-	.
8G/	.	.	.	.	.
8B/	.	.	.	.	.
8d/J	.	.	.	.	.
2D/	2C\	8gg/L]	2a\	.	.
.	.	8ff#X/	.	-ki	.
.	.	8een/	.	wdzięk	.
.	.	[8dd/J	.	w tym	.
*v	*v	*	*	*	*
=45	=45	=45	=45	=45
!LO:TX:B:a:t=Tempo I.	!	!	!	!
8D 8BB/)	8dd] 8g/	4ryy	kwiatku!	.
16r	16r	.	.	.
!	!	!	!	!LO:HP:a
16D\KL	16d/KL	.	gdy	<
8G\	8g/	8ryy	.	.
8B\J	8b/J	8ryy	u-	[
!	!	!	!	!LO:DY:a
4e\	([2ee/	4r	-ro-	sf
(4d (4G#X\	.	4b [4e\	.	.
=46	=46	=46	=46	=46
*^	*	*	*	*
4c 4A\))	2ryy	8ee/L]	4e\]	.	.
.	.	8cc/	.	.	.
4r	.	8a/	4r	.	.
.	.	8b/J	.	.	.
4A/	2F# (2D#X\	(4cc/)	(2f#\	-cza	.
.	.	16qqdd/LL	.	.	.
.	.	16qqcc/JJ	.	.	.
[4B/	.	8.b/L	.	tak	.
.	.	16a/Jk	.	pa-	.
!!LO:PB:g=original
=47	=47	=47	=47	=47	=47
8B/]	8G 8E\)	8g/)	8e\)	-nienka.	.
16r	8ryy	16r	16ryy	.	.
16EKL 16EE/	.	16ggKL 16ee 16b\	16ryy	.	f
8D 8DD/	4ryy	8bb 8ff# 8b\	4ryy	.	.
16r	.	16r	.	.	.
16CJk 16CC/	.	16eeJk 16cc 16g\	.	.	.
8BB 8BBB/	2ryy	8gg 8dd 8g\	4ryy	.	.
8r	.	8r	.	.	.
4r	.	8.b^/L	4ryy	ja-	.
.	.	16g/Jk	.	-każ	.
*v	*v	*	*	*	*
*	*v	*v	*	*
=48	=48	=48	=48
8.r	8.f#/L	będzie	f
16c\	16eeJk 16e/	.	.
8cL 8C\	8aaL 8ee 8a\	.	.
16r	16r	.	.
16BJk 16BB\	16bbJk 16gg#X 16dd 16b\	.	.
8A 8AA\	8ccc 8aa 8cc\	.	.
8A'\L	8a'\L	o	.
8B'\	8b'\	ja-	.
8c'\J	8cc'\J	-ka	.
=49	=49	=49	=49
*	*^	*	*
!	!	!LO:TX:t=P:problem:błędne wyświetlanie łuku	!	!
8d 8B 8G 8D\	8bb 8ggn/	(>4.dd\	bę-	sf
!	!LO:TX:i:a:t=rallent.	!	!	!
8r	8r	.	.	.
4r	4r	.	.	.
.	.	8gg 8g\)	.	.
8D 8DD/	8.ff#/L	8cc 8a 8f#\	-dzie ja-	sf
16r	.	8ryy	.	.
16d\	16dd/K	.	-ka	.
8c'\L	8cc'/	4ryy	to	.
8A'\J	8a'/J	.	wo-	.
*	*v	*v	*	*
!!LO:LB:g=original
=50||	=50||	=50||	=50||
*M2/4	*M2/4	*	*
!!LO:TX:B:a:t=Allegro.
8G 8GG/	8g/	-jenka!	p
8gL 8d\	8r	.	.
8g 8d 8B\	4r	.	.
8gJ 8d 8B 8G\	.	.	.
=51	=51	=51	=51
!	!LO:TX:i:a:t=scherzando	!	!
8dL 8F#'\	8ddL 8cc 8a'\	a	.
8d 8c 8A'\	16dd'\L	wiec	.
.	16dd'\JJ	.	.
8d 8A 8F#'\	8dd'\L	wuj-	.
8dJ 8D'\	8dd'\J	-ciu!	.
=52	=52	=52	=52
8dL 8G'\	(16dd\LL	śmiało!	.
.	16ddd\	.	.
8d 8B'\	16bb\	.	.
.	16gg\JJ	.	.
8d 8B 8G'\	8dd\L)	.	.
8dJ 8D'\	8ddJ 8b 8g'\	.	.
=53	=53	=53	=53
8dL 8F#'\	8ddL 8cc 8a'\	.	.
8d 8c 8A'\	16dd'\L	.	.
.	16dd'\JJ	.	.
8d 8A 8F#'\	8dd'\L	.	.
8dJ 8D'\	8dd'\J	.	.
=54	=54	=54	=54
8BL 8G'\	(16dd\LL	.	.
.	16ee\	.	.
8d 8B'\	16dd\	.	.
.	16b\JJ	.	.
8d 8B 8G'\	16g/LL	.	.
.	16a/	.	.
8dJ 8D'\	16b/	.	.
.	16cc/JJ)	.	.
!!LO:LB:g=original
=55	=55	=55	=55
8dL 8F#\	8ddL 8cc 8a'\	.	.
8d 8c 8A\	16dd'\L	.	.
.	16dd'\JJ	.	.
8d 8A 8F#\	8dd'\L	.	.
8dJ 8D\	8dd'\J	.	.
=56	=56	=56	=56
8dL 8G\	(16dd\LL	.	.
.	16ddd\	.	.
8d 8B\	16bb\	.	.
.	16gg\JJ	.	.
8d 8G\	8dd\L)	.	.
8dJ 8D\	8ddJ 8b 8g'\	.	.
=57	=57	=57	=57
8dL 8F#\	8ddL 8cc 8a'\	.	.
8d 8c 8A\	16dd'\L	.	.
.	16dd'\JJ	.	.
8d 8A 8F#\	8dd'\L	.	.
8dJ 8D\	8dd'\J	.	.
=58	=58	=58	=58
8B'\	(<16dd\LL	.	.
.	16ee\	.	.
8G^\L	16dd\	.	.
.	16b\JJ	.	.
8D\	16g/LL	.	.
.	16a/	.	.
8C\J	16b/	.	.
.	16cc/JJ)	.	.
=59	=59	=59	=59
*	*^	*	*
8GL 8BB'\	8dd'/L	8d\L	Ach,	.
8BJ 8D'\	16dd'/L	8g\	.	.
.	16dd'/JJ	.	.	.
8GL 8BB'\	8dd'/L	8d\	wuj	.
8BJ 8D'\	8dd'/J	8g\J	szczę-	.
!!LO:LB:g=original
=60	=60	=60	=60	=60
8GL 8C'\	(16ee-X/LL	8g\L	-śliwszy,	.
.	16ffn/	.	.	.
8AJ 8E-X'\	16ee-/	8g\	.	.
.	16dd/JJ	.	.	.
8GL 8C'\	8ee-/L)	8g\	.	.
8AJ 8E-'\	8ee-'/J	8g\J	szczę-	.
=61	=61	=61	=61	=61
8GL 8C#X'\	8een'/L	8en\L	-śliw-	.
8B-XJ 8E'\	16ee'/L	8g\	.	.
.	16ee'/JJ	.	.	.
8GL 8C#'\	8ee'/L	8e\	-szy,	.
8B-J 8E'\	8ee'/J	8g\J	o-	.
=62	=62	=62	=62	=62
8B-XL 8D'\	(16ffn/LL	8b-X\L	-demnie!	.
.	16gg/	.	.	.
8dJ 8Fn'\	16ff/	8b-\	.	.
.	16ee/JJ	.	.	.
8B-L 8D'\	8ff/L)	8b-\	.	.
8dJ 8F'\	8ff'/J	8b-\J	ja	.
=63	=63	=63	=63	=63
8cL 8D#X'\	8ff#X/L	8a\L	wzdy-	.
8AJ 8F#X'\	16ff#/L	8cc\	-cham	.
.	16ff#/JJ	.	.	.
8cL 8D#'\	8ff#/L	8a\	.	.
8AJ 8F#'\	8ff#/J	8cc\J	da-	.
=64	=64	=64	=64	=64
8cL 8E\	16gg/LL	8cc\L	-remnie,	.
.	16aa/	.	.	.
8cJ 8G\	16gg/	8cc\	.	.
.	16ff#/JJ	.	.	.
8cL 8E\	8gg/L	8cc\	.	.
8cJ 8G\	8gg/J	8cc\J	choć	.
!!LO:LB:g=original
=65	=65	=65	=65	=65
8dL 8E#X\	8gg#X/L	8b\L	wuj-	.
8BJ 8G#X\	16gg#/L	8dd\J	.	.
.	16gg#/JJ	.	.	.
8dL 8E#\	8gg#/L	8b\L	-cia	.
8BJ 8G#\	8gg#/J	8dd\J	po-	.
=66	=66	=66	=66	=66
8dL 8F#\	16aa/LL	8dd\L	-ło-	.
.	16bb/	.	.	.
8dJ 8A\	16aa/	8dd\J	.	.
.	16gg#X/JJ	.	.	.
8dL 8F#\	8aa/L	8dd\L	-wę	.
8dJ 8A\	8aa/J	8dd\J	mam	.
*	*v	*v	*	*
=67	=67	=67	=67
!	!	!	!LO:HP:b:t=mol-to cre-scen-do:ext2=cd
8d 8G\	8bb-XL 8b-X\	lat...	<
16r	16r	.	.
16G 16GG/	16bb-Jk 16dd 16b-\	.	.
8G#XL 8GG#X/	8bbnL 8ffn 8bn\	.	.
16r	16r	.	.
16G#Jk 16GG#/	16bbJk 16ff 16b\	.	.
=68	=68	=68	=68
8AL 8AA\	8cccL 8ee 8cc\	.	.
16r	16r	.	.
16AJk 16AA\	16cccJk 16ee 16cc\	.	.
8A#XL 8AA#X\	8ccc#XL 8gg 8ee\	.	.
16r	16r	.	.
16A#Jk 16AA#\	16ccc#Jk 16gg 16ee\	.	.
=69	=69	=69	=69
8BL 8BB\	8dddL 8gg 8dd\	.	.
16r	16r	.	[
16BJk 16BB\	16dddJk 16gg 16dd\	.	.
8BBL 8BBB/	8ddd#XL 8gg 8dd#X\	.	.
16r	16r	.	.
16BBJk 16BBB/	16ddd#Jk 16gg 16dd#\	.	.
=70	=70	=70	=70
8C 8GG 8CC/	8eee 8gg 8ee\	.	sfff
8r	8r	.	.
!	!LO:TX:i:b:t=lunga\npausa	!	!
4r;	4r;	.	.
!!LO:PB:g=original
=71	=71	=71	=71
8dL 8F#'\	8ddL 8cc 8a'\	.	ppp
8dJ 8c 8A'\	16dd'\L	.	.
.	16dd'\JJ	.	.
8dL 8A 8F#'\	8dd'\L	.	.
8dJ 8D'\	8dd'\J	.	.
=72	=72	=72	=72
8dL 8G'\	(16dd\LL	.	.
.	16ddd\	.	.
8d 8B'\	16bb\	.	.
.	16gg\JJ	.	.
8d 8B 8G'\	8dd\L)	.	.
8dJ 8D'\	8ddJ 8b 8g'\	.	.
=73	=73	=73	=73
8dL 8F#'\	8ddL 8cc 8a'\	.	.
8d 8c 8A'\	16dd'\L	.	.
.	16dd'\JJ	.	.
8d 8A 8F#'\	8dd'\L	.	.
8dJ 8D'\	8dd'\J	.	.
=74	=74	=74	=74
8BL 8G'\	(16dd\LL	.	.
.	16ee\	.	.
8d 8B'\	16dd\	.	.
.	16b\JJ	.	.
8d 8B 8G'\	16g/LL	.	.
.	16a/	.	.
8dJ 8D'\	16b/	.	.
.	16cc/JJ)	.	.
=75	=75	=75	=75
8dL 8F#\	8ddL 8cc 8a'\	.	.
8d 8c 8A\	16dd'\L	.	.
.	16dd'\JJ	.	.
8d 8A 8F#\	8dd'\L	.	.
8dJ 8D\	8dd'\J	.	.
=76	=76	=76	=76
8dL 8G\	(16dd\LL	.	.
.	16ddd\	.	.
8d 8B\	16bb\	.	.
.	16gg\JJ	.	.
8d 8G\	8dd\L)	.	.
8dJ 8D\	8ddJ 8b 8g'\	.	.
!!LO:LB:g=original
=77	=77	=77	=77
8dL 8F#\	8ddL 8cc 8a'\	.	.
8d 8c 8A\	16dd'\L	.	.
.	16dd'\JJ	.	.
8d 8A 8F#\	8dd'\L	.	.
8dJ 8D\	8dd'\J	.	.
=78	=78	=78	=78
8B\L	(<16dd\LL	.	.
.	16ee\	.	.
8G^\	16dd\	.	.
.	16b\JJ	.	.
8D\	16g/LL	Pod:	.
.	16a/	Za	.
8C\J	16b/	.	.
.	16cc/JJ)	.	.
=79	=79	=79	=79
*	*^	*	*
8GL 8BB'\	8dd'/L	8d\L	Bro-	.
8BJ 8D'\	16dd'/L	8g\	-nię	.
.	16dd'/JJ	.	.	.
8GL 8BB'\	8dd'/L	8d\	pię-	.
8BJ 8D'\	8dd'/J	8g\J	-kną,	.
=80	=80	=80	=80	=80
8GL 8C'\	(16ee-X/LL	8g\L	ma-	.
.	16ffn/	.	.	.
8AJ 8E-X'\	16ee-/	8g\	-łą,	.
.	16dd/JJ	.	.	.
8GL 8C'\	8ee-/L)	8g\	smu-	.
8AJ 8E-'\	8ee-/J	8g\J	-kłą,	.
=81	=81	=81	=81	=81
8GL 8C#X'\	8een'/L	8e\L	bia-	.
8B-XJ 8En'\	16ee'/L	8g\	-łą	.
.	16ee'/JJ	.	.	.
8GL 8C#'\	8ee'/L	8e\	od-	.
8B-J 8E'\	8ee'/J	8g\J	-dał-	.
=82	=82	=82	=82	=82
8B-XL 8D'\	16ffn/LL	8b-X\L	-bym	.
.	16gg/	.	.	.
8dJ 8Fn'\	16ff/	8b-\	ty-	.
.	16ee/JJ	.	.	.
8B-L 8D'\	8ff/L	8b-\	-sią-	.
8dJ 8F'\	8ff/J	8b-\J	-ce	.
!!LO:LB:g=original
=83	=83	=83	=83	=83
8cL 8D#X\	8ff#X/L	8a\L	chat,	.
8AJ 8F#X\	16ff#/L	8cc\	.	.
.	16ff#/JJ	.	i	.
8cL 8D#\	8ff#/L	8a\	ca-	.
8AJ 8F#\	8ff#/J	8cc\J	-ły	.
=84	=84	=84	=84	=84
8cL 8E\	16gg/LL	8cc\L	świat!...	.
.	16aa/	.	.	.
8cJ 8G\	16gg/	8cc\	.	.
.	16ff#/JJ	.	.	.
8cL 8E\	8gg/L	8cc\	.	.
8cJ 8G\	8gg/J	8cc\J	.	.
=85	=85	=85	=85	=85
8dL 8E#X\	8gg#X/L	8b\L	.	.
8BJ 8G#X\	16gg#/L	8dd\	.	.
.	16gg#/JJ	.	.	.
8dL 8E#\	8gg#/L	8b\	.	.
8BJ 8G#\	8gg#/J	8dd\J	.	.
=86	=86	=86	=86	=86
8dL 8F#\	16aa/LL	8dd\L	.	.
.	16bb/	.	.	.
8dJ 8A\	16aa/	8dd\	.	.
.	16gg#X/JJ	.	.	.
8dL 8F#\	8aa/L	8dd\	.	.
8dJ 8A\	8aa/J	8dd\J	.	.
*	*v	*v	*	*
=87	=87	=87	=87
!	!	!	!LO:HP:b:t=mol-to cre-scen-do:ext2=cd
8d 8G\	8bb-XL 8b-X\	.	<
16r	16r	.	.
16G 16GG/	16bb-Jk 16dd 16b-\	.	.
8G#XL 8GG#X/	8bbnL 8ffn 8bn\	.	.
16r	16r	.	.
16G#Jk 16GG#/	16bbJk 16ff 16b\	.	.
=88	=88	=88	=88
8AL 8AA\	8cccL 8ee 8cc\	.	.
16r	16r	.	.
16AJk 16AA\	16cccJk 16ee 16cc\	.	.
8A#XL 8AA#X\	8ccc#XL 8gg 8ee\	.	.
16r	16r	.	.
16A#Jk 16AA#\	16ccc#Jk 16gg 16ee\	.	.
!!LO:LB:g=original
=89	=89	=89	=89
8BL 8BB\	8dddL 8gg 8dd\	.	.
16r	16r	.	.
16BJk 16BB\	16dddJk 16gg 16dd\	.	.
8BBL 8BBB/	8ddd#XL 8gg 8dd#X\	.	[
16r	16r	.	.
16BBJk 16BBB/	16ddd#Jk 16gg 16dd#\	.	.
=90	=90	=90	=90
8C 8GG 8CC/	8eee 8gg 8ee\	.	.
8r	8r	.	.
8.r	8.r	.	.
16d#X\	16dd#X\	Dz: Wu-	f
=91	=91	=91	=91
(4f#^\	(4ff#^\	-jaszku	.
8e\L)	8ee\L)	.	.
16r	16r	.	.
16B\Jk	16b\Jk	mój	.
=92	=92	=92	=92
(4d\	(4dd^\	dro-	.
8c\L)	8cc/L)	-gi!	.
16r	16r	.	.
16G#X\Jk	16g#X/Jk	wu-	.
=93	=93	=93	=93
(4B^\	(4b^/	-jasz-	.
8A\L)	8a/L)	-ku	.
8B\J	8b/J	ko-	.
=94	=94	=94	=94
4c\	4cc\	-cha-	.
8d\L	8dd\L	-ny!	.
8e\J	8ee\J	w jej	.
!!LO:LB:g=original
=95	=95	=95	=95
*	*^	*	*
8C'\L	4.ee^/	16a\LL	łas-	.
.	.	16f#\	.	.
8AJ 8D'\	.	16a\	.	.
.	.	16f#\JJ	.	.
8C'\L	.	16a\LL	.	.
.	.	16f#\	.	.
8AJ 8D'\	8dd/	16a\	-ce	.
.	.	16f#\JJ	.	.
=96	=96	=96	=96	=96
8BB'\L	4.ffn/	16a\LL	ten	.
.	.	16fn\	.	.
8AJ 8D'\	.	16a\	.	.
.	.	16f\JJ	.	.
8BB'\L	.	16a\LL	.	.
.	.	16f\	.	.
8AJ 8D'\	8ee/	16a\	mi-	.
.	.	16f\JJ	.	.
=97	=97	=97	=97	=97
8E 8EE/	(4dd/	16b\LL	-zer-	.
.	.	16e\	.	.
(8BL 8G#X\	.	16b\	.	.
.	.	16e\JJ	.	.
8c 8A\)	8cc/L)	16a\LL	-ny,	.
.	.	16e\	.	.
8dJ 8B'\	8b/J	16g#X\	szla-	.
.	.	16e\JJ	.	.
=98	=98	=98	=98	=98
8AA'\L	4.dd/	16bLL 16g#X\	-chet-	.
.	.	16e\	.	.
8dJ 8B'\	.	16b 16g#\	.	.
.	.	16e\JJ	.	.
8A'\L	.	16bLL 16g#\	.	.
.	.	16e\	.	.
8cJ 8A'\	8cc/	16a\	-ka!	.
.	.	16e\JJ	.	.
*	*v	*v	*	*
=99	=99	=99	=99
16CC/LL	8bL 8g 8e-X/	ach	.
16C/	.	.	.
16CC/	8a 8f# 8e-/	co	.
16C/JJ	.	.	.
16CC/LL	8b 8g 8e-/	za	.
16C/	.	.	.
16CC/	8ccJ 8a 8e-/	ko-	.
16C/JJ	.	.	.
!!LO:PB:g=original
=100	=100	=100	=100
8BBL 8BBB'/	4dd 4g\	-kiet-	.
8GG'/	.	.	.
8C 8CC'/	8eenL 8g\	-ka	.
8EJ 8EE'/	8ccJ 8g\	.	.
=101	=101	=101	=101
8D 8DD/	4b 4g 4d/	.	.
8BL 8G 8D\	.	.	.
8c 8F# 8D\	4a 4d/	.	.
8cJ 8F# 8D\	.	.	.
.	16qqb/LL	.	.
.	16qqa/JJ	.	.
=102	=102	=102	=102
8B 8G\	8g/	.	.
(16G\LL	(<16g/LL	.	.
16A\JJ	16a/JJ	.	.
8B\L)	8b\L)	.	.
(16B\L	(16b\L	.	.
16c\JJ	16cc\JJ	.	.
=103	=103	=103	=103
8d\)	8dd\)	.	.
8GL 8GG'/	8ggL 8dd 8b 8g'\	Pod:	.
8G 8GG'/	8ee 8cc 8g'\	Nie	.
8GJ 8GG'/	8ccJ 8a 8g'\	trwoń	.
=104	=104	=104	=104
8G 8GG/	8dd 8b 8g'\	darmo	.
(16B\LL	(16b\LL	.	.
16c\JJ	16cc\JJ	.	.
8d\L)	8dd\L)	.	.
(16e\L	(16ee\L	.	.
16f#\JJ	16ff#\JJ	.	.
=105	=105	=105	=105
8g\)	8gg\)	.	.
8cL 8C'\	8ff#L 8dd 8a'\	próżnych	.
8B 8BB'\	8gg 8dd 8g'\	.	.
8GJ 8GG'\	8bbJ 8gg 8dd'\	.	.
!!LO:LB:g=original
=106	=106	=106	=106
*ped	*	*	*
8D 8DD/	8ddd 8bb 8gg 8dd\	słów,	sf
8r	8r	.	.
*Xped	*	*	*
*clefG2	*	*	*
8ddL 8b 8f# 8d'/	16ddd'\LL	oj	p
!	!LO:TX:i:b:t=scherz.	!	!
.	16ccc#X'\	.	.
8ddJ 8b 8f# 8d'/	16bb'\	.	.
.	16ddd'\JJ	ty	.
=107	=107	=107	=107
8ddL 8g 8e 8d'/	(16ccc#X\LL	Dzi-	.
.	16ee\)	.	.
8ddJ 8g 8e 8d'/	16ee'\	-dzi,	.
.	16ccc#'\JJ	.	.
8ddL 8a 8f# 8d'/	16cccn'\LL	łotrze	.
.	16bb'\	.	.
8aJ 8f# 8d'/	16aa'\	.	.
.	16ccc'\JJ	.	.
=108	=108	=108	=108
8bL 8g/	(16bb\LL	Dzidzi!	.
.	16dd\)	.	.
8gJ 8d 8B/	16dd\	.	.
.	16bb\JJ	.	.
8aL 8e 8c/	16aa\LL	nie	.
.	16gg\	.	.
8aJ 8e 8c/	16ff#\	za-	.
.	16ee\JJ	.	.
=109	=109	=109	=109
8aL 8f# 8B/	16dd#X\LL	-le-	.
.	16ee\	.	.
8aJ 8f# 8B/	16ff#\	caj	.
.	16dd#\JJ	.	.
8gL 8e 8B/	16ee\LL	się	.
.	16ff#\	.	.
8gJ 8e 8B/	16gg\	do	.
.	16aa\JJ	.	.
=110	=110	=110	=110
8f# 8d#X 8B/	8bb\	wdów!	.
*clefF4	*	*	*
(16E\LL	(16e/LL	.	f
16F#\JJ	16f#/JJ	.	.
8G\L)	8g/L)	.	.
(16G\L	(16g/L	.	.
16A\JJ	16a/JJ	.	.
=111	=111	=111	=111
8B\)	8b\)	.	.
8EL 8EE'/	8eeL 8b 8g 8e'/	.	.
8E 8EE'/	8cc 8a 8e'/	.	.
8EJ 8EE'/	8aJ 8f# 8e'/	.	.
!!LO:LB:g=original
=112	=112	=112	=112
8E 8EE/	8b 8g 8e/	.	.
16E\LL	16e/LL	.	<
16F#\JJ	16f#/JJ	.	.
16G\LL	16g/LL	.	.
16A\	16a/	.	.
16B\	16b/	.	.
16c\JJ	16cc/JJ	.	[[
=113	=113	=113	=113
8d\	8dd\	.	.
8cL 8C'\	8ff#L 8dd 8a'\	.	.
8B 8BB'\	8gg 8dd 8g'\	.	.
8GJ 8GG'\	8bbJ 8gg 8dd'\	.	.
=114	=114	=114	=114
*ped	*	*	*
8D 8DD/	8ddd 8dd\	.	sf
8r	8r	.	.
*Xped	*	*	*
*clefG2	*	*	*
8ddL 8b 8f# 8d'/	16ddd'\LL	.	p
!	!LO:TX:i:b:t=scherz.	!	!
.	16ccc#X'\	.	.
8ddJ 8b 8f# 8d'/	16bb'\	.	.
.	16ddd'\JJ	.	.
=115	=115	=115	=115
8ddL 8g 8e 8d'/	(16ccc#X\LL	.	.
.	16ee\)	.	.
8ddJ 8g 8e 8d'/	16ee'\	.	.
.	16ccc#'\JJ	.	.
8ddL 8a 8f# 8d'/	16cccn'\LL	.	.
.	16bb'\	.	.
8aJ 8f# 8d'/	16aa'\	.	.
.	16ccc'\JJ	.	.
=116	=116	=116	=116
8bL 8g/	(16bb\LL	.	.
.	16dd\)	.	.
8gJ 8d 8B/	16dd'\	.	.
.	16bb'\JJ	.	.
8aL 8e 8c/	16aa'\LL	.	.
.	16gg'\	.	.
8aJ 8e 8c/	16ff#'\	.	.
.	16ee'\JJ	.	.
=117	=117	=117	=117
8bL 8g 8d/	(16dd\LL	.	>
.	16ddd\	.	.
8bJ 8g 8d/	16bb\	.	.
.	16gg\JJ	.	.
8a 8d/	16ff#\LL	.	.
.	16dd\	.	.
*clefF4	*	*	*
8d\	16cc\	.	.
.	16a\JJ)	.	]]
!!LO:LB:g=original
=118	=118	=118	=118
8G\	8g/	.	p
8D\L	8d/L	.	.
!	!	!	!LO:HP:b:t=cre-scen-do:ext2=cd
8A 8G\	8e 8c#X/	.	<
8AJ 8F#\	8d/J	.	.
=119	=119	=119	=119
8B\L	8gL 8d/	.	.
8A\	8f# 8d/	.	.
8d\	8b 8g/	.	.
8cn\J	8aJ 8f# 8d/	.	.
=120	=120	=120	=120
8B\	8dd 8d/	.	.
8c\L	8ddL 8a 8f# 8d/	.	.
8B\	8dd 8g 8d/	.	.
8c\J	8ddJ 8a 8f# 8d/	.	[[
=121	=121	=121	=121
8B\	8dd 8g 8d/	.	.
8CL 8CC/	8dddL 8aa 8ff# 8dd\	.	f
8BB 8BBB/	8ddd 8gg 8dd\	.	.
8CJ 8CC/	8dddJ 8aa 8ff# 8dd\	.	.
=122	=122	=122	=122
8BB 8BBB/	8dddL 8bb 8gg 8dd\	.	.
16r	16r	.	.
16d\	16dd\Jk	.	.
[4e^\	[4ee^\	.	.
=123	=123	=123	=123
8e\L]	8ee\L]	.	.
8d'\	8dd'\	.	.
8B'\	8b'\	.	.
8G'\J	8g'\J	.	.
=124	=124	=124	=124
8D 8DD/	4.gg 4.dd 4.b 4.g^^\	.	.
8r	.	.	.
8d 8B 8G 8D\	.	.	.
8r	8b 8g/	.	.
=125	=125	=125	=125
8D 8DD/	(4.dd 4.f#^^;/	.	.
8r	.	.	.
8d 8A 8D\	.	.	.
8r;	16cc/LL	.	.
.	16a/JJ	.	.
!!LO:LB:g=original
=126	=126	=126	=126
8B 8G\	8g/)	.	.
8r	8r	.	.
4G 4E 4GG/	8.ggL 8.g\	.	ff
.	16aaJk 16a\	.	.
=127	=127	=127	=127
4F# 4D 4GG/	8bbL 8b\	.	.
.	16r	.	.
.	16bbJk 16b\	.	.
4E 4C 4GG/	8bbL 8b\	.	.
.	16r	.	.
.	16bbJk 16b\	.	.
=128	=128	=128	=128
4D 4BB 4GG^^</	8bb 8b\	.	.
.	8r	.	.
4F# 4AA 4GG^^</	8.dddL 8.dd^\	.	.
.	16cccJk 16cc\	.	.
=129	=129	=129	=129
4G 4D 4GG^^</	8.bbL 8.b\	.	.
.	16aaJk 16a\	.	.
4G 4D 4BB^^<\	8.ggL 8.g\	.	.
.	16ff#Jk 16f#\	.	.
=130	=130	=130	=130
8G 8C\	8ee 8e/	.	.
8r	8r	.	.
8.cL 8.E 8.C\	8.aaL 8.ee 8.a\	.	.
16BJk 16E 16BB\	16bbJk 16ee 16b\	.	.
=131	=131	=131	=131
8A 8E 8AA\	8ccc 8ee 8cc\	.	.
8r	8r	.	.
8.cL 8.E 8.C\	8.aaL 8.ee 8.a\	.	.
16BJk 16E 16BB\	16bbJk 16ee 16b\	.	.
=132	=132	=132	=132
*	*^	*	*
8A 8E 8AA\	8ccc 8ee 8cc\	4ryy	.	.
8r	8r	.	.	.
4a 4A\	8.ee/L	(4cc\	.	sf
.	16gg/Jk	.	.	.
=133	=133	=133	=133	=133
8d\	8ff#/	8a\)	.	.
8r	8r	8ryy	.	.
8d 8A 8D\	8ddd 8aa 8ff# 8dd\	4ryy	.	ff
8r	8r	.	.	.
*	*v	*v	*	*
=134	=134	=134	=134
8G 8GG/	8ggg 8ddd 8bb 8gg\	.	.
8r	8r	.	.
4r	4r	.	.
==	==	==	==
*-	*-	*-	*-
!!!system-decoration: {(p1)}
!!!ENC: Berenika Jozajtis
!!!END: 2022-08-20
!!!ENC: Kamil Watkowski
!!!END: 2022-09-25
!!!RDF**kern: > = above
!!!RDF**kern: < = below
!!!YEC: Copyright 2022 Narodowy Instytut Fryderyka Chopina (https://polishscores.org)
!!!YEM: License CC-BY-4.0 (https://creativecommons.org/licenses/by/4.0)
!!!YEC: Copyright 2022 Narodowy Instytut Fryderyka Chopina (https://polishscores.org)
